X:1
T:God Is Known among His People
T:Tune: F. Pinder, c. 1900 Text under copyright; for copyrighted material see Psalter Hymnal 76
T:87 87 87 TEMPLE BORO www.hymnary.org/text/god_is_known_among_his_people
T:God Is Known among His People
T:This music is in the public domain. You may freely use this score for personal and congregational worship. If you reproduce the score, please credit Hymnary.org as the source. 
T:This music is in the public domain. You may freely use this score for personal and congregational worship. If you reproduce the score, please credit Hymnary.org as the source. 
Z:This music is in the public domain. You may freely use this score for personal and congregational worship. If you reproduce the score, please credit Hymnary.org as the source.
%%score ( 1 2 ) ( 3 4 )
L:1/8
M:3/2
K:C
V:1 treble nm="SOPRANO ALTO" snm="S. A."
V:2 treble 
V:3 bass nm="TENOR BASS" snm="T. B."
V:4 bass 
V:1
 G2 c2 | c6 B2 c2 A2 | A4 G4 E2 G2 | F6 D2 E2 F2 | E8 G2 c2 | c6 A2 B2 c2 | d4 G4 | G2 A2 | %8
 B6 A2 B2 A2 | G8 G2 e2 | e6 d2 |1 c2 A2 | A4 G4 A2 F2 | E6 C2 E2 D2 | C6 x6 |] %15
V:2
 E2 E2 | F6 F2 F2 F2 | F4 E4 C2 C2 | B,6 B,2 C2 B,2 | C8 E2 E2 | D6 ^F2 G2 F2 | G4 D4 | G2 G2 | %8
 G6 G2 ^F2 F2 | D8 E2 E2 | E6 E2 |1 F2 F2 | F4 E4 C2 C2 | C6 C2 B,2 B,2 | G,6 x2 x4 |] %15
V:3
 G,2 G,2 | A,6 G,2 A,2 B,2 | B,4 C4 G,2 G,2 | G,6 G,2 G,2 G,2 | G,8 G,2 G,2 | ^F,6 D2 D2 D2 | %6
 D4 B,4 | B,2 C2 | D6 C2 D2 C2 | B,8 C2 C2 | _B,6 B,2 |1 A,2 =B,2 | B,4 (C2 _B,2) A,2 A,2 | %13
 G,6 E,2 G,2 F,2 | E,6 x6 |] %15
V:4
 C,2 C,2 | C,6 C,2 C,2 C,2 | C,4 C,4 C,2 E,2 | D,6 F,2 E,2 D,2 | C,8 C,2 C,2 | D,6 D,2 G,2 A,2 | %6
 B,4 G,4 | E,2 E,2 | D,6 E,2 D,2 D,2 | G,8 C,2 C,2 | C,6 C,2 |1 C,2 C,2 | C,4 C,4 F,2 F,2 | %13
 G,4 G,,4 G,,2 G,,2 | C,6 x6 |] %15

